X: 20941
M: 6/8
L: 1/8
K: F
V: 1 name="1"
c/f/ |\
a3 fga | fgg g2a | b3 efg | fff fcf |\
a3 fga | ggg g2a | b3 fga | fff "^D.C."f2 :|
c3 BAB | c3 BAB | c2c f2f | agf edc |\


